svgs/sharp-regular/question.svg

<svg xmlns="http://www.w3.org/2000/svg" viewBox="0 0 320 512"><!--! Font Awesome Pro 6.6.0 by @fontawesome - https://fontawesome.com License - https://fontawesome.com/license (Commercial License) Copyright 2024 Fonticons, Inc. --><path d="M144 80c-44.2 0-80 35.8-80 80l0 16-48 0 0-16C16 89.3 73.3 32 144 32l32 0c70.7 0 128 57.3 128 128l0 7.4c0 38.2-18.2 74.2-49 96.8l-71 52 0 11.8 0 24-48 0 0-24 0-24 0-12.2 9.8-7.2 80.8-59.2c18.5-13.6 29.4-35.1 29.4-58.1l0-7.4c0-44.2-35.8-80-80-80l-32 0zm48 336l0 64-64 0 0-64 64 0z"/></svg>

<svg xmlns="http://www.w3.org/2000/svg" viewBox="0 0 320 512"><!--! Font Awesome Pro 6.4.2 by @fontawesome - https://fontawesome.com License - https://fontawesome.com/license (Commercial License) Copyright 2023 Fonticons, Inc. --><path d="M144 80c-44.2 0-80 35.8-80 80v16H16V160C16 89.3 73.3 32 144 32h32c70.7 0 128 57.3 128 128v7.4c0 38.2-18.2 74.2-49 96.8l-71 52V328v24H136V328 304 291.8l9.8-7.2 80.8-59.2c18.5-13.6 29.4-35.1 29.4-58.1V160c0-44.2-35.8-80-80-80H144zm48 336v64H128V416h64z"/></svg>
